brandFactory_export/2.Regular/Flecha arriba abajo_2Regular.svg

<?xml version="1.0" encoding="UTF-8"?>
<svg width="24px" height="24px" viewBox="0 0 24 24" version="1.1" xmlns="http://www.w3.org/2000/svg" xmlns:xlink="http://www.w3.org/1999/xlink">
    <title>2.Regular/Flecha arriba abajo_2Regular</title>
    <g id="Symbols" stroke="none" stroke-width="1" fill="none" fill-rule="evenodd">
        <g id="2.Regular/Flecha-arriba-abajo_2Regular" fill="#5CB615" fill-rule="nonzero">
            <path d="M15.7848739,23.6907563 C15.589916,23.6907563 15.3915966,23.6268908 15.2235294,23.4957983 C15.1798319,23.4621849 15.1428571,23.4252101 15.1058824,23.3848739 L10.1176471,18.3294118 C10.1008403,18.312605 10.087395,18.2957983 10.0739496,18.2789916 C9.8487395,18 9.80168067,17.6067227 9.95630252,17.2806723 C10.1109244,16.9579832 10.4235294,16.7596639 10.7731092,16.7563025 L12.9613445,16.7361345 L12.9579832,13.2605042 C12.9579832,12.4638655 13.6033613,11.8184874 14.4,11.8184874 L17.1831933,11.8184874 C17.9798319,11.8184874 18.6252101,12.4638655 18.6252101,13.2605042 L18.6285714,16.7462185 L20.8201681,16.7630252 C21.1731092,16.7630252 21.4857143,16.9647059 21.6403361,17.287395 C21.794958,17.6134454 21.7478992,18.0067227 21.5193277,18.2857143 C21.5058824,18.302521 21.492437,18.3193277 21.4756303,18.3327731 L16.4638655,23.3848739 C16.2857143,23.5865546 16.0369748,23.6907563 15.7848739,23.6907563 L15.7848739,23.6907563 Z M11.7781513,18.097479 L15.7848739,22.1579832 L19.8151261,18.097479 L18.194958,18.0840336 L18.1815126,18.0840336 C17.6773109,18.0705882 17.2773109,17.6537815 17.2840336,17.1495798 L17.2806723,13.2605042 C17.2806723,13.2067227 17.2369748,13.1630252 17.1831933,13.1630252 L14.4,13.1630252 C14.3462185,13.1630252 14.302521,13.2067227 14.302521,13.2605042 L14.3092437,17.1495798 C14.3159664,17.6504202 13.9193277,18.0705882 13.4151261,18.0840336 L13.4016807,18.0840336 L11.7781513,18.097479 L11.7781513,18.097479 Z M9.33109244,11.892437 L6.5512605,11.892437 C5.75462185,11.892437 5.1092437,11.2470588 5.1092437,10.4504202 L5.10588235,6.96806723 L2.91764706,6.9512605 C2.56470588,6.9512605 2.25210084,6.74957983 2.09747899,6.42689076 C1.94285714,6.10084034 1.98991597,5.70756303 2.21848739,5.42857143 C2.23193277,5.41176471 2.24537815,5.39495798 2.26218487,5.38151261 L7.27058824,0.332773109 C7.41848739,0.164705882 7.62016807,0.0605042017 7.84201681,0.0336134454 C8.08067227,0.00672268908 8.31932773,0.0705882353 8.50756303,0.221848739 C8.5512605,0.255462185 8.58823529,0.292436975 8.62521008,0.332773109 L13.610084,5.38151261 C13.6268908,5.39831933 13.6403361,5.41512605 13.6537815,5.43193277 C13.8789916,5.71092437 13.9260504,6.10420168 13.7714286,6.4302521 C13.6168067,6.75294118 13.3042017,6.9512605 12.9546218,6.95462185 L10.7697479,6.97142857 L10.7731092,10.4504202 C10.7731092,11.2436975 10.1277311,11.892437 9.33109244,11.892437 Z M6.45042017,6.56134454 L6.45378151,10.4470588 C6.45378151,10.5008403 6.49747899,10.5445378 6.5512605,10.5445378 L9.33109244,10.5445378 C9.38487395,10.5445378 9.42857143,10.5008403 9.42857143,10.4470588 L9.42521008,6.56134454 C9.41848739,6.0605042 9.81512605,5.64033613 10.3193277,5.62689076 L10.3327731,5.62689076 L11.9529412,5.61344538 L7.94957983,1.55630252 L3.92605042,5.61344538 L5.54285714,5.62689076 L5.55630252,5.62689076 C6.0605042,5.64033613 6.45714286,6.0605042 6.45042017,6.56134454 Z" id="Flecha-arriba-abajo_2Regular"></path>
        </g>
    </g>
</svg>

<svg width="24" height="24" viewBox="0 0 24 24" xmlns="http://www.w3.org/2000/svg"><path d="M15.785 23.69a.912.912 0 01-.68-.305l-4.987-5.056c-.017-.016-.03-.033-.044-.05a.952.952 0 01-.118-.998.91.91 0 01.817-.525l2.188-.02-.003-3.475c0-.797.645-1.443 1.442-1.443h2.783c.797 0 1.442.646 1.442 1.443l.004 3.485 2.191.017c.353 0 .666.202.82.524a.946.946 0 01-.164 1.046l-5.012 5.052a.903.903 0 01-.68.306zm-4.007-5.593l4.007 4.061 4.03-4.06-1.62-.014h-.013a.923.923 0 01-.898-.934l-.003-3.89a.098.098 0 00-.098-.097H14.4a.098.098 0 00-.097.098l.006 3.889c.007.5-.39.92-.894.934h-.013l-1.624.013zm-2.447-6.205h-2.78A1.442 1.442 0 015.11 10.45l-.003-3.482-2.188-.017a.905.905 0 01-.82-.524.946.946 0 01.12-.998c.014-.017.027-.034.044-.047L7.271.332a.9.9 0 011.237-.11c.043.033.08.07.117.11l4.985 5.05c.017.016.03.033.044.05a.952.952 0 01.117.998.91.91 0 01-.816.525l-2.185.016.003 3.48c0 .793-.645 1.441-1.442 1.441zm-2.88-5.33l.003 3.885c0 .054.043.098.097.098h2.78a.098.098 0 00.098-.098l-.004-3.886a.922.922 0 01.894-.934h.014l1.62-.014L7.95 1.556 3.926 5.613l1.617.014h.013c.505.013.901.434.894.934z" fill="#5CB615" fill-rule="nonzero"/></svg>
